src/main/resources/icons/SpringBootApiIcons/icons/SpringBoot_Overlay.svg

<svg xmlns="http://www.w3.org/2000/svg" width="16" height="16" viewBox="0 0 16 16">
  <path fill="#9AA7B0" fill-rule="evenodd" d="M9,8 L14,8 L16,12 L14,16 L9,16 L7,12 L9,8 Z M11,9.55000906 C9.85887984,9.78164422 9,10.790521 9,12 C9,13.3807119 10.1192881,14.5 11.5,14.5 C12.8807119,14.5 14,13.3807119 14,12 C14,10.790521 13.1411202,9.78164422 12,9.55000906 L12,9 L11,9 L11,9.55000906 Z M11,10.5853529 L11,12 L12,12 L12,10.5853529 C12.5825962,10.7912711 13,11.3468906 13,12 C13,12.8284271 12.3284271,13.5 11.5,13.5 C10.6715729,13.5 10,12.8284271 10,12 C10,11.3468906 10.4174038,10.7912711 11,10.5853529 Z"/>
</svg>

<svg xmlns="http://www.w3.org/2000/svg" width="16" height="16" viewBox="0 0 16 16"><rect id="frame" width="16" height="16" fill="none"/><path fill="#9AA7B0" fill-rule="evenodd" d="M9 8h5l2 4-2 4H9l-2-4 2-4zm2 1.55a2.5 2.5 0 1 0 1 0V9h-1v.55zm0 1.035V12h1v-1.415a1.5 1.5 0 1 1-1 0z"/></svg>
